svgs/sharp-regular/vacuum.svg

<svg xmlns="http://www.w3.org/2000/svg" viewBox="0 0 640 512"><!--! Font Awesome Pro 6.6.0 by @fontawesome - https://fontawesome.com License - https://fontawesome.com/license (Commercial License) Copyright 2024 Fonticons, Inc. --><path d="M243.4 48L528 48c35.3 0 64 28.7 64 64c0 30.7-21.7 56.5-50.6 62.6C507.8 145.6 463.9 128 416 128l-16 0-48 0 0 48 0 116c10.2-2.6 21-4 32-4c5.4 0 10.8 .3 16 1l0-113 16 0c79.5 0 144 64.5 144 144l0 144-57.3 0c-7.5 18.6-19.3 35-34 48l91.3 0 48 0 0-48 0-144c0-39.5-11.9-76.1-32.3-106.6c38-17.9 64.3-56.6 64.3-101.4C640 50.1 589.9 0 528 0L224 0 204.6 0l-4 19L156.9 224l49.1 0L243.4 48zM199.2 256l-49.1 0L122.9 384 64 384 0 448l0 16 0 48 48 0 128 0 48 0 0-48 0-32 0-48-48 0-4.1 0 27.2-128zM384 368a48 48 0 1 1 0 96 48 48 0 1 1 0-96zm0 144a96 96 0 1 0 0-192 96 96 0 1 0 0 192zM51.9 464l32-32 92.1 0 0 32L51.9 464zM400 416a16 16 0 1 0 -32 0 16 16 0 1 0 32 0z"/></svg>

<svg xmlns="http://www.w3.org/2000/svg" viewBox="0 0 640 512"><!--! Font Awesome Pro 6.4.0 by @fontawesome - https://fontawesome.com License - https://fontawesome.com/license (Commercial License) Copyright 2023 Fonticons, Inc. --><path d="M243.4 48H528c35.3 0 64 28.7 64 64c0 30.7-21.7 56.5-50.6 62.6C507.8 145.6 463.9 128 416 128H400 352v48V292c10.2-2.6 21-4 32-4c5.4 0 10.8 .3 16 1V176h16c79.5 0 144 64.5 144 144V464H502.7c-7.5 18.6-19.3 35-34 48H560h48V464 320c0-39.5-11.9-76.1-32.3-106.6c38-17.9 64.3-56.6 64.3-101.4C640 50.1 589.9 0 528 0H224 204.6l-4 19L156.9 224H206L243.4 48zM199.2 256H150.1L122.9 384H64L0 448v16 48H48 176h48V464 432 384H176h-4.1l27.2-128zM384 368a48 48 0 1 1 0 96 48 48 0 1 1 0-96zm0 144a96 96 0 1 0 0-192 96 96 0 1 0 0 192zM51.9 464l32-32H176v32H51.9zM400 416a16 16 0 1 0 -32 0 16 16 0 1 0 32 0z"/></svg>
